src/assets/img/svg/burger-menu-icons/relationship.svg

<svg width="20" height="18" fill="none" xmlns="http://www.w3.org/2000/svg"><path d="M20 8V0h-7v3H7V0H0v8h7V5h2v10h4v3h7v-8h-7v3h-2V5h2v3h7z" fill="#D0CFCF"/></svg>

<svg width="20" height="18" viewBox="0 0 20 18" fill="none" xmlns="http://www.w3.org/2000/svg">
    <path d="M20 8V0H13V3H7V0H0V8H7V5H9V15H13V18H20V10H13V13H11V5H13V8H20Z" fill="#D0CFCF"/>
</svg>
